themes/snowflake/assets/img/icons/icon-consulting.svg

<?xml version="1.0" encoding="UTF-8" standalone="no"?><!DOCTYPE svg PUBLIC "-//W3C//DTD SVG 1.1//EN" "http://www.w3.org/Graphics/SVG/1.1/DTD/svg11.dtd"><svg width="100%" height="100%" viewBox="0 0 256 256" version="1.1" xmlns="http://www.w3.org/2000/svg" xmlns:xlink="http://www.w3.org/1999/xlink" xml:space="preserve" style="fill-rule:evenodd;clip-rule:evenodd;stroke-linejoin:round;stroke-miterlimit:1.41421;"><path d="M128,0c70.645,0 128,57.355 128,128c0,70.645 -57.355,128 -128,128c-70.645,0 -128,-57.355 -128,-128c0,-70.645 57.355,-128 128,-128Zm24,176l-48,0l0,24l48,0l0,-24Zm0,-9c0,-32.246 24,-35.933 24,-63c-0.001,-26.493 -21.508,-48 -48,-48c-26.492,0 -48,21.508 -48,48c0,27.067 24,30.755 24,63l48,0Z" style="fill:#e53a25;"/></svg>

<?xml version="1.0" encoding="UTF-8" standalone="no"?>
<!DOCTYPE svg PUBLIC "-//W3C//DTD SVG 1.1//EN" "http://www.w3.org/Graphics/SVG/1.1/DTD/svg11.dtd">
<svg width="100%" height="100%" viewBox="0 0 256 256" version="1.1" xmlns="http://www.w3.org/2000/svg" xmlns:xlink="http://www.w3.org/1999/xlink" xml:space="preserve" style="fill-rule:evenodd;clip-rule:evenodd;stroke-linejoin:round;stroke-miterlimit:1.41421;">
    <path d="M128,0C198.645,0 256,57.355 256,128C256,198.645 198.645,256 128,256C57.355,256 0,198.645 0,128C0,57.355 57.355,0 128,0ZM152,176L104,176L104,200L152,200L152,176ZM152,167C152,134.754 176,131.067 176,104C175.999,77.507 154.492,56 128,56C101.508,56 80,77.508 80,104C80,131.067 104,134.755 104,167L152,167Z" style="fill:rgb(229,36,22);"/>
</svg>
